X:1
T:Psalm 45
T:V 10
L:1/4
M:14/4
I:linebreak $
K:F
V:1 treble nm="Pipe Organ" snm="Org."
V:1
 F2 A2 c A2 G A =B c3 z |$[M:13/4] d c2 A G2 F F E F3 z |$ G A2 A G2 c c =B c3 z |$ %3
w: Gee dan die Ko- ning, groot van mag,|op jou en op jou skoon- heid ag,|o wei- er nie: buig voor Hom neer;|
 A B2 A G2 F F E F4 |] %4
w: Hy is jou Ko- ning en jou HEER.|

